X:1
T: Hon. Mrs. Ramsay Maule's Favourite
C:
R:Strathspey
Q: 128
K:Em
M:4/4
L:1/16
|:e2|BE3 B3A F2D2 D2d2|BE3 B3A BE3 B3A|B3d Ad3 F2D2 D2d2|BE3 B3A G2E2 E2c2|
BE3 B3A F2D2 D2d2|BE3 B3A Bd3 ef3|d3B A2G2 F2D2 D2d2|BE3 B3A G2E2 E2g2|
e3B eg3 d2D2 A3F|e2B2 e2g2 e2B2 e2g2|e3f g2e2 d2D2 A2F2|BE3 B3A G2E2 E2g2|
e2B2 e2g2 d2D2 A2GF|e3B eg3 B2ef g2e2|d2f2 B2d2 F2D2 A2GF|BE3 B3A G2E2 E2:|
